X:407
T:Reel 407
M:4/4
K:Dmaj
L:1/8
D2FD ADFD|CEA,B cEGE|D2FD ADFA|GECD EDD2:|Ad (3dcd fdcd|AcBc cAGE|Ad (3dcd fded|cAGE FDD2|Ad (3dcd ed (3dcd |Ad (3dcd edcd| (3ABc Bd cBcd|edcB AdAG|
